X:46
M:9/4
L:1/4
Q:3/4=100
K:F
d>ed^F2GA2A/B/ | c>dcc>GEG2B | A>FAB2AB>dB | A>FDE2DD2 ||
d>eff>efd2A | c>dee>fe^c2B/A/ | BdA=B2AB>dB | A>FDA>FDD2 ||
d>ed^F2GA2A/B/ | c>dcc>GEG2B | A>FAB2AB>cB | A>FDE2DD2 |]

